X:1
T:Dippermouth Blues (Sugarfoot stomp)
C:Joe "King" Oliver (1923)
M:4/4
L:1/8
F:https://youtu.be/-wcAaXcC87w
R:traditional
K:Bbmaj
L_d4-dBG=E |LBG=E_D LGEDB, | LF2 z2 LG2 z2 | L_A2 z =A z FG2 |
|: "Bb" B2G2D2F2 | "Eb" _dBc^F G B3 | "Bb" z2 B^C DFGB| "Bb7" d4 BFDB, | "Eb" _dBc^F G B3 |
"Eb" _d2 d2 (3 d/2c/2_d/2 B GF | "Bb" B2 G^C DF D2 | "Bb" F2 z2 z ^c dc |
"F7" dB=c2 B4 | z2 ^cd B =c2 B-|"Bb" B6 z2 | z2 BB BAGF :|